svgs/thin/floppy-disks.svg

<svg xmlns="http://www.w3.org/2000/svg" viewBox="0 0 512 512"><!-- Font Awesome Pro 6.0.0-alpha2 by @fontawesome - https://fontawesome.com License - https://fontawesome.com/license (Commercial License) --><path d="M493.254 109.254L402.746 18.744C390.742 6.742 374.465 0 357.49 0H160C124.654 0 96 28.654 96 64V352C96 387.346 124.654 416 160 416H448C483.346 416 512 387.346 512 352V154.51C512 137.535 505.258 121.258 493.254 109.254ZM176 16H357.49C361.08 16 364.58 16.482 368 17.246V104C368 117.234 357.219 128 344 128H200C186.781 128 176 117.234 176 104V16ZM496 352C496 378.467 474.467 400 448 400H160C133.533 400 112 378.467 112 352V64C112 37.533 133.533 16 160 16V104C160 126.062 177.938 144 200 144H344C366.062 144 384 126.062 384 104V23.98C386.643 25.738 389.137 27.764 391.432 30.059L481.941 120.57C491.008 129.635 496 141.688 496 154.51V352ZM304 192C259.816 192 224 227.816 224 272C224 316.182 259.816 352 304 352S384 316.182 384 272C384 227.816 348.184 192 304 192ZM304 336C268.711 336 240 307.289 240 272S268.711 208 304 208S368 236.711 368 272S339.289 336 304 336ZM408 448C403.578 448 400 451.594 400 456C400 478.062 382.062 496 360 496H72C41.125 496 16 470.875 16 440V152C16 129.938 33.938 112 56 112C60.422 112 64 108.406 64 104S60.422 96 56 96C25.125 96 0 121.125 0 152V440C0 479.688 32.297 512 72 512H360C390.875 512 416 486.875 416 456C416 451.594 412.422 448 408 448Z"/></svg>

<svg xmlns="http://www.w3.org/2000/svg" viewBox="0 0 512 512"><!--! Font Awesome Pro 6.3.0 by @fontawesome - https://fontawesome.com License - https://fontawesome.com/license (Commercial License) Copyright 2023 Fonticons, Inc. --><path d="M493.3 109.3l-90.51-90.51C390.7 6.742 374.5 0 357.5 0H160C124.7 0 96 28.65 96 64v288c0 35.35 28.65 64 64 64h288c35.35 0 64-28.65 64-64V154.5C512 137.5 505.3 121.3 493.3 109.3zM176 16h181.5C361.1 16 364.6 16.48 368 17.25V104C368 117.2 357.2 128 344 128h-144C186.8 128 176 117.2 176 104V16zM496 352c0 26.47-21.53 48-48 48H160c-26.47 0-48-21.53-48-48V64c0-26.47 21.53-48 48-48v88C160 126.1 177.9 144 200 144h144C366.1 144 384 126.1 384 104V23.98c2.643 1.758 5.137 3.783 7.432 6.078l90.51 90.51C491 129.6 496 141.7 496 154.5V352zM304 192C259.8 192 224 227.8 224 272c0 44.18 35.82 80 80 80S384 316.2 384 272C384 227.8 348.2 192 304 192zM304 336c-35.29 0-64-28.71-64-64s28.71-64 64-64s64 28.71 64 64S339.3 336 304 336zM408 448c-4.422 0-8 3.594-8 8c0 22.06-17.94 40-40 40h-288c-30.88 0-56-25.12-56-56v-288c0-22.06 17.94-40 40-40C60.42 112 64 108.4 64 104S60.42 96 56 96C25.13 96 0 121.1 0 152v288C0 479.7 32.3 512 72 512h288c30.88 0 56-25.12 56-56C416 451.6 412.4 448 408 448z"/></svg>
